src/actions/32/gnumeric-format-valign-justify.svg

<svg xmlns="http://www.w3.org/2000/svg" viewBox="0 0 32 32">
    <path d="M4 4v1h24V4H4zm0 3v1h24V7H4zm0 7v1h24v-1H4zm0 3v1h24v-1H4zm0 7v1h24v-1H4zm0 3v1h24v-1H4z" style="fill:currentColor;fill-opacity:1;stroke:none;color:#050505;opacity:.7"/>
</svg>

<svg xmlns="http://www.w3.org/2000/svg" viewBox="0 0 32 32">
  <defs
     id="defs3051">
    <style
       type="text/css"
       id="current-color-scheme">
      .ColorScheme-Text {
        color:#363636;
      }
      </style>
  </defs>
  <path
     style="fill:currentColor;fill-opacity:1;stroke:none" 
     d="M 4 4 L 4 5 L 28 5 L 28 4 L 4 4 z M 4 7 L 4 8 L 28 8 L 28 7 L 4 7 z M 4 14 L 4 15 L 28 15 L 28 14 L 4 14 z M 4 17 L 4 18 L 28 18 L 28 17 L 4 17 z M 4 24 L 4 25 L 28 25 L 28 24 L 4 24 z M 4 27 L 4 28 L 28 28 L 28 27 L 4 27 z "
     class="ColorScheme-Text"
     />
</svg>
